Obsidian-SemiLight/actions/16s/chronometer-pause.svg

<svg viewBox="0 0 16 16" xmlns="http://www.w3.org/2000/svg"><path d="m5.2558594 2.5976562c-1.37169.60156-2.5139494 1.6192-3.2558594 2.90625l.8671875.5c.63533-1.1009299 1.6102831-1.9710681 2.7832031-2.4863281zm5.4882816 0-.394532.9199219c1.172918.5152582 2.147872 1.3854019 2.783203 2.4863281l.867188-.5c-.741915-1.2870483-1.884167-2.3046898-3.255859-2.90625zm-2.744141 1.4023438a5 5 0 0 0 -5 5 5 5 0 0 0 5 5 5 5 0 0 0 5-5 5 5 0 0 0 -5-5zm0 1a4 4 0 0 1 4 4 4 4 0 0 1 -4 4 4 4 0 0 1 -4-4 4 4 0 0 1 4-4zm-2 2v4h1v-4zm3 0v4h1v-4z" fill="#4d4d4d"/></svg>

<svg xmlns="http://www.w3.org/2000/svg" viewBox="0 0 16 16">
  <defs id="defs3051">
    <style type="text/css" id="current-color-scheme">
      .ColorScheme-Text {
        color:#4d4d4d;
      }
      </style>
  </defs>
 <path style="fill:currentColor;fill-opacity:1;stroke:none" 
     d="M 5.2558594 2.5976562 C 3.8841694 3.1992162 2.74191 4.2168562 2 5.5039062 L 2.8671875 6.0039062 C 3.5025175 4.9029763 4.4774706 4.0328381 5.6503906 3.5175781 L 5.2558594 2.5976562 z M 10.744141 2.5976562 L 10.349609 3.5175781 C 11.522527 4.0328363 12.497481 4.90298 13.132812 6.0039062 L 14 5.5039062 C 13.258085 4.2168579 12.115833 3.1992164 10.744141 2.5976562 z M 8 4 A 5 5 0 0 0 3 9 A 5 5 0 0 0 8 14 A 5 5 0 0 0 13 9 A 5 5 0 0 0 8 4 z M 8 5 A 4 4 0 0 1 12 9 A 4 4 0 0 1 8 13 A 4 4 0 0 1 4 9 A 4 4 0 0 1 8 5 z M 6 7 L 6 11 L 7 11 L 7 7 L 6 7 z M 9 7 L 9 11 L 10 11 L 10 7 L 9 7 z "
     class="ColorScheme-Text"
     />
</svg>
